public/webImages/Sponsors/dow.svg

<?xml version="1.0" encoding="UTF-8" standalone="no"?>
<svg
   width="1176.4688"
   height="400"
   version="1.1"
   id="svg3"
   sodipodi:docname="dow.svg"
   inkscape:version="1.3.2 (091e20e, 2023-11-25)"
   xmlns:inkscape="http://www.inkscape.org/namespaces/inkscape"
   xmlns:sodipodi="http://sodipodi.sourceforge.net/DTD/sodipodi-0.dtd"
   xmlns="http://www.w3.org/2000/svg"
   xmlns:svg="http://www.w3.org/2000/svg">
  <defs
     id="defs3" />
  <sodipodi:namedview
     id="namedview3"
     pagecolor="#ffffff"
     bordercolor="#666666"
     borderopacity="1.0"
     inkscape:showpageshadow="2"
     inkscape:pageopacity="0.0"
     inkscape:pagecheckerboard="0"
     inkscape:deskcolor="#d1d1d1"
     inkscape:zoom="0.94221448"
     inkscape:cx="189.97798"
     inkscape:cy="-65.802427"
     inkscape:window-width="1312"
     inkscape:window-height="449"
     inkscape:window-x="0"
     inkscape:window-y="25"
     inkscape:window-maximized="0"
     inkscape:current-layer="svg3" />
  <g
     id="g1"
     style="fill:#ffffff"
     transform="matrix(2,0,0,2,-10,-10)">
    <path
       d="m 457.42353,193.64706 q -3.29412,0 -6.05294,-1.11177 -2.75883,-1.11176 -4.81765,-3.12941 -2.01765,-2.05882 -3.12941,-4.81764 -1.11177,-2.75883 -1.11177,-6.05295 0,-3.29411 1.11177,-6.05294 1.11176,-2.75882 3.12941,-4.77647 2.05882,-2.05882 4.81765,-3.17059 2.75882,-1.11176 6.05294,-1.11176 3.12941,0 5.84706,1.11176 2.75882,1.11177 4.81764,3.17059 2.1,2.01765 3.25294,4.77647 1.19412,2.75883 1.19412,6.05294 0,3.29412 -1.11176,6.05295 -1.11177,2.75882 -3.17059,4.81764 -2.01765,2.01765 -4.77647,3.12941 -2.75883,1.11177 -6.05294,1.11177 z m 0,-2.18235 q 2.63529,0 4.94117,-0.94706 2.30589,-0.94706 4.07647,-2.67647 1.77059,-1.77059 2.75883,-4.11765 0.98823,-2.34706 0.98823,-5.18824 0,-2.67647 -0.94706,-5.02353 -0.94706,-2.34705 -2.67647,-4.11764 -1.68823,-1.77059 -4.03529,-2.75883 -2.30588,-1.02941 -5.10588,-1.02941 -3.70589,0 -6.62942,1.68824 -2.88235,1.64706 -4.52941,4.57059 -1.64706,2.88235 -1.64706,6.67058 0,2.67647 0.94706,5.02353 0.94706,2.34706 2.6353,4.11765 1.72941,1.77059 4.07647,2.8 2.34706,0.98824 5.14706,0.98824 z m -5.64118,-3.91177 v -17.99412 h 5.27059 q 3.37647,0 4.94117,1.31765 1.56471,1.31765 1.56471,3.99412 0,1.93529 -0.98823,3.08823 -0.98824,1.11177 -2.22353,1.60589 l 4.77647,7.98823 h -3.54118 l -4.11765,-7.12353 h -2.55294 v 7.12353 z m 5.18824,-9.67647 q 1.60588,0 2.51176,-0.82353 0.90588,-0.82353 0.90588,-2.1 0,-1.44118 -0.82353,-2.1 -0.82353,-0.65882 -2.63529,-0.65882 h -2.01765 v 5.68235 z"
       aria-label="®"
       style="font-size:7px;fill:#ffffff;stroke-width:5.88235"
       id="path1" />
    <path
       id="path2"
       style="fill:#ffffff;stroke-width:5.88235"
       d="M 299.11719,5 5,105 299.11719,205 593.23438,105 Z M 148.47656,64.353516 h 60.51758 c 15.34705,0 33.19336,19.076268 33.19336,41.058594 0,23.77645 -20.16397,39.80469 -33.19336,39.80469 h -60.51758 v -4.375 c 4.64118,-0.0471 8.40039,-1.28298 8.40039,-2.8418 h 0.22852 V 71.289062 c 0.0176,-0.0706 0.0879,-0.107318 0.0879,-0.136718 0,-0.07648 -0.0703,-0.116941 -0.0879,-0.181641 v -0.111328 h -0.0586 c -0.45294,-1.435289 -4.01768,-2.582031 -8.49415,-2.582031 h -0.0762 z m 149.28906,11.328125 c 25.78234,0 42.69336,16.271248 42.69336,36.335939 0,20.64115 -14.55407,34.24072 -37.21875,36.11719 h -10.94531 c -22.66468,-1.87647 -37.23633,-15.47604 -37.23633,-36.11719 0,-20.005871 16.77178,-36.335939 42.70703,-36.335939 z m 170.89844,4.171875 v 5.023437 c 0,0 -2.64611,-0.01215 -3.24023,0.09961 -1.8,0.37647 -3.00115,1.246208 -3.70703,2.216797 -0.0471,0.05294 -23.06886,51.5612 -23.07032,51.56445 -0.0764,2.09262 -0.0328,3.125 4.80664,3.125 v 4.5 l -31.85937,0.24024 v -4.59375 c 3.08824,0 3.94141,-0.87705 3.94141,-3.35352 0,-0.98824 -11.10547,-29.36328 -11.10547,-29.36328 l -12.99414,28.31641 c -0.30588,0.3353 -0.37696,0.70541 -0.37696,1.11718 0,2.60588 1.35889,3.28321 4.98243,3.28321 h 0.0176 v 4.59375 l -34.36523,-0.12891 v -4.63476 c 2.81176,-0.0706 5.18359,-0.5479 5.18359,-3.28907 0,-0.55295 -10e-4,-1.04697 -0.18945,-1.52343 L 347.5293,87.505859 c 0,-0.0235 0.0646,-0.06439 0.041,-0.08789 -0.84706,-1.552939 -0.52352,-2.683594 -5.5,-2.683594 v -4.728516 h 31.44727 v 4.728516 c -2.44116,0 -4.0293,0.207124 -4.0293,2.683594 h -0.1582 l 10.72265,31.628911 13.19336,-36.95313 h 11.1836 l 10.65234,-0.05859 14.25977,38.52929 12.58789,-33.005852 c 0,-1.441179 -0.52357,-2.61692 -4.49414,-2.6875 -0.11766,-0.0118 -0.88808,-0.01172 -1.04688,-0.01172 v -4.876953 z m -293.03515,1.564453 v 46.017581 h 31.66601 c 7.85881,0 17.75798,-7.57704 17.73438,-22.35938 -0.0235,-15.347042 -11.52262,-23.658201 -17.73438,-23.658201 z m 122.20117,11.210937 c -14.56471,0 -24.04102,9.088794 -24.04102,20.359374 0,11.24704 9.48219,20.35938 24.04102,20.35938 14.57644,0 24.03515,-9.11234 24.03515,-20.35938 0,-11.27058 -9.45871,-20.359374 -24.03515,-20.359374 z" />
  </g>
</svg>

<?xml version="1.0" encoding="UTF-8" standalone="no"?>
<svg
   width="598.235"
   height="210"
   version="1.1"
   id="svg3"
   sodipodi:docname="dow.svg"
   inkscape:version="1.3.2 (091e20e, 2023-11-25, custom)"
   xmlns:inkscape="http://www.inkscape.org/namespaces/inkscape"
   xmlns:sodipodi="http://sodipodi.sourceforge.net/DTD/sodipodi-0.dtd"
   xmlns="http://www.w3.org/2000/svg"
   xmlns:svg="http://www.w3.org/2000/svg">
  <defs
     id="defs3" />
  <sodipodi:namedview
     id="namedview3"
     pagecolor="#ffffff"
     bordercolor="#666666"
     borderopacity="1.0"
     inkscape:showpageshadow="2"
     inkscape:pageopacity="0.0"
     inkscape:pagecheckerboard="0"
     inkscape:deskcolor="#d1d1d1"
     inkscape:zoom="4.1288124"
     inkscape:cx="299.11749"
     inkscape:cy="104.99387"
     inkscape:window-width="3440"
     inkscape:window-height="1369"
     inkscape:window-x="-8"
     inkscape:window-y="-8"
     inkscape:window-maximized="1"
     inkscape:current-layer="svg3" />
  <g
     id="g1"
     style="fill:#ffffff">
    <path
       d="m 457.42353,193.64706 q -3.29412,0 -6.05294,-1.11177 -2.75883,-1.11176 -4.81765,-3.12941 -2.01765,-2.05882 -3.12941,-4.81764 -1.11177,-2.75883 -1.11177,-6.05295 0,-3.29411 1.11177,-6.05294 1.11176,-2.75882 3.12941,-4.77647 2.05882,-2.05882 4.81765,-3.17059 2.75882,-1.11176 6.05294,-1.11176 3.12941,0 5.84706,1.11176 2.75882,1.11177 4.81764,3.17059 2.1,2.01765 3.25294,4.77647 1.19412,2.75883 1.19412,6.05294 0,3.29412 -1.11176,6.05295 -1.11177,2.75882 -3.17059,4.81764 -2.01765,2.01765 -4.77647,3.12941 -2.75883,1.11177 -6.05294,1.11177 z m 0,-2.18235 q 2.63529,0 4.94117,-0.94706 2.30589,-0.94706 4.07647,-2.67647 1.77059,-1.77059 2.75883,-4.11765 0.98823,-2.34706 0.98823,-5.18824 0,-2.67647 -0.94706,-5.02353 -0.94706,-2.34705 -2.67647,-4.11764 -1.68823,-1.77059 -4.03529,-2.75883 -2.30588,-1.02941 -5.10588,-1.02941 -3.70589,0 -6.62942,1.68824 -2.88235,1.64706 -4.52941,4.57059 -1.64706,2.88235 -1.64706,6.67058 0,2.67647 0.94706,5.02353 0.94706,2.34706 2.6353,4.11765 1.72941,1.77059 4.07647,2.8 2.34706,0.98824 5.14706,0.98824 z m -5.64118,-3.91177 v -17.99412 h 5.27059 q 3.37647,0 4.94117,1.31765 1.56471,1.31765 1.56471,3.99412 0,1.93529 -0.98823,3.08823 -0.98824,1.11177 -2.22353,1.60589 l 4.77647,7.98823 h -3.54118 l -4.11765,-7.12353 h -2.55294 v 7.12353 z m 5.18824,-9.67647 q 1.60588,0 2.51176,-0.82353 0.90588,-0.82353 0.90588,-2.1 0,-1.44118 -0.82353,-2.1 -0.82353,-0.65882 -2.63529,-0.65882 h -2.01765 v 5.68235 z"
       aria-label="®"
       style="font-size:7px;fill:#ffffff;stroke-width:5.88235"
       id="path1" />
    <path
       id="path2"
       style="fill:#ffffff;stroke-width:5.88235"
       d="M 299.11719 5 L 5 105 L 299.11719 205 L 593.23438 105 L 299.11719 5 z M 148.47656 64.353516 L 208.99414 64.353516 C 224.34119 64.353516 242.1875 83.429784 242.1875 105.41211 C 242.1875 129.18856 222.02353 145.2168 208.99414 145.2168 L 148.47656 145.2168 L 148.47656 140.8418 C 153.11774 140.79474 156.87695 139.55882 156.87695 138 L 157.10547 138 L 157.10547 71.289062 C 157.12307 71.218463 157.19336 71.181744 157.19336 71.152344 C 157.19336 71.075864 157.12307 71.035403 157.10547 70.970703 L 157.10547 70.859375 L 157.04688 70.859375 C 156.59394 69.424086 153.0292 68.277344 148.55273 68.277344 L 148.47656 68.277344 L 148.47656 64.353516 z M 297.76562 75.681641 C 323.54796 75.681641 340.45898 91.952889 340.45898 112.01758 C 340.45898 132.65873 325.90491 146.2583 303.24023 148.13477 L 292.29492 148.13477 C 269.63024 146.2583 255.05859 132.65873 255.05859 112.01758 C 255.05859 92.011709 271.83037 75.681641 297.76562 75.681641 z M 468.66406 79.853516 L 468.66406 84.876953 C 468.66406 84.876953 466.01795 84.864803 465.42383 84.976562 C 463.62383 85.353032 462.42268 86.22277 461.7168 87.193359 C 461.66974 87.246298 438.64794 138.75456 438.64648 138.75781 C 438.57012 140.85043 438.61367 141.88281 443.45312 141.88281 L 443.45312 146.38281 L 411.59375 146.62305 L 411.59375 142.0293 C 414.68199 142.0293 415.53516 141.15225 415.53516 138.67578 C 415.53516 137.68754 404.42969 109.3125 404.42969 109.3125 L 391.43555 137.62891 C 391.12967 137.96421 391.05859 138.33432 391.05859 138.74609 C 391.05859 141.35197 392.41748 142.0293 396.04102 142.0293 L 396.05859 142.0293 L 396.05859 146.62305 L 361.69336 146.49414 L 361.69336 141.85938 C 364.50512 141.78879 366.87695 141.31148 366.87695 138.57031 C 366.87695 138.01736 366.8757 137.52334 366.6875 137.04688 L 347.5293 87.505859 C 347.5293 87.482359 347.59391 87.441469 347.57031 87.417969 C 346.72325 85.86503 347.04679 84.734375 342.07031 84.734375 L 342.07031 80.005859 L 373.51758 80.005859 L 373.51758 84.734375 C 371.07642 84.734375 369.48828 84.941499 369.48828 87.417969 L 369.33008 87.417969 L 380.05273 119.04688 L 393.24609 82.09375 L 404.42969 82.09375 L 415.08203 82.035156 L 429.3418 120.56445 L 441.92969 87.558594 C 441.92969 86.117415 441.40612 84.941674 437.43555 84.871094 C 437.31789 84.859294 436.54747 84.859375 436.38867 84.859375 L 436.38867 79.982422 L 468.66406 79.853516 z M 175.62891 81.417969 L 175.62891 127.43555 L 207.29492 127.43555 C 215.15373 127.43555 225.0529 119.85851 225.0293 105.07617 C 225.00576 89.729128 213.50668 81.417969 207.29492 81.417969 L 175.62891 81.417969 z M 297.83008 92.628906 C 283.26537 92.628906 273.78906 101.7177 273.78906 112.98828 C 273.78906 124.23532 283.27125 133.34766 297.83008 133.34766 C 312.40652 133.34766 321.86523 124.23532 321.86523 112.98828 C 321.86523 101.7177 312.40652 92.628906 297.83008 92.628906 z " />
  </g>
</svg>
